X:63
T:Hessian Dance. Ru2.063
%%VWML:RutherfordVol2-2249-p32-0
F:http://www.vwml.org/record/RutherfordVol2/2249/p32
L:1/8
B:RUTHERFORD Complete Collection of 200 Country Dances Vol.2; 1759.
Z:vmp. Peter Dunk 2015
Q:3/8=60
K:G
gdB|G/F/G/A/G|DEF|G/F/G/A/G|gdB|G/F/G/A/G|DEF|G3:|
|:def|g2e|f/a/g/f/e/d/|e/g/f/e/d/^c/|\
def|g2c|BA/G/A/F/|1G3:|2G2g|
|:d2e|B2c|AGF|GDg|d2e|B2c|AGF|G3:|
W:
W:First Man cast of and turn the 3d. Wo. & stands in ye 2d. Mans place .|
W:the first Wo: the same with the 3d. Man :| Lead thro' the 3d. Cu: & cast up .|
W:lead up to the top & cast off :| Back to Back .|. Right & Left at top :|
T:Arne's Jig. Ru2.064
M:C|
L:1/8
R:Jig
B:RUTHERFORD Complete Collection of 200 Country Dances Vol.2; 1759.
Z:vmp. Peter Dunk 2015
Q:1/2=70
K:G
G2BG (B/c/d) BG|F2AF (A/B/c) AF|G2BG (d/e/f) gB|cAdB G/G/G G2:|
d|:g2bg afed|e2f2 gagd|g2bg afed|(e/f/g) (f/g/a)trg3B|
ceAc BdGB|Aagf edcB|ceAc BdGB|(A/B/c) AF G4:|
W:
W:Cast off one Cu: & hands round with thw 2d. Cu: .| cross over 2 Cu:
W:lead to the top foot it and cast off :| Right hands across half round
W:with the 3d. Cu: Left hands back again Right and Left at top:|
